Obsidian/actions/16s/document-save-as-symbolic.svg

<svg height="16" width="16" xmlns="http://www.w3.org/2000/svg"><path d="m2.5 1c-.831 0-1.5.669-1.5 1.5v1c0-.831.669-1.5 1.5-1.5h6c.831 0 1.5.669 1.5 1.5v-1c0-.831-.669-1.5-1.5-1.5zm8.5 3v1h3v-1zm0 2v1h3v-1zm-8 2.5v1c0 .277.223.5.5.5h2.5 1.5c.277 0 .5-.223.5-.5v-1c0 .277-.223.5-.5.5h-1.5-2.5c-.277 0-.5-.223-.5-.5zm8 .5v1h3v-1zm-10.00541745 3c-.559653 0-1 .45099-1 1 0 .177783.0728334.355528.15625.5.1773453-.28938.4747171-.5.84375-.5.36903285 0 .69765465.21062.87499995.5.083417-.144472.15625-.322217.15625-.5 0-.54901-.471597-1-1.03124995-1zm2.99999995 0c-.559653 0-1 .45099-1 1 0 .177783.072833.355528.15625.5.1773453-.28938.4747171-.5.84375-.5s.6976547.21062.875.5c.083417-.144472.15625-.322217.15625-.5 0-.54901-.471597-1-1.03125-1zm3 0c-.559653 0-1 .45099-1 1 0 .177783.072833.355528.15625.5.1773453-.28938.4747171-.5.84375-.5s.6976547.21062.875.5c.083417-.144472.15625-.322217.15625-.5 0-.54901-.471597-1-1.03125-1zm2.0054175 0 1.15625 1h.84375v-1zm5 0v1h.84375l1.15625-1zm-11.5-11c-.831 0-1.5.669-1.5 1.5v7c0 .831.669 1.5 1.5 1.5h3.5 2.5c.831 0 1.5-.669 1.5-1.5v-7c0-.831-.669-1.5-1.5-1.5zm1 2h4c.277 0 .5.223.5.5v5c0 .277-.223.5-.5.5h-1.5-2.5c-.277 0-.5-.223-.5-.5v-5c0-.277.223-.5.5-.5zm7.5 1v1h3v-1zm0 2v2h3v-2zm0 3v3h-2.0054175l3.5054175 3 3.5-3h-2v-3zm-10.00541745 3c-.559653 0-1 .45099-1 1s.440347 1 1 1c.55965295 0 1.03124995-.450991 1.03124995-1 0-.54901-.471597-1-1.03124995-1zm2.99999995 0c-.559653 0-1 .45099-1 1s.4403471 1 1 1c.559653 0 1.03125-.450991 1.03125-1 0-.54901-.471597-1-1.03125-1zm3 0c-.559653 0-1 .45099-1 1s.4403466 1 1 1c.559653 0 1.03125-.450991 1.03125-1 0-.54901-.4715975-1-1.03125-1z" fill="#bebebe"/></svg>

<?xml version="1.0" encoding="UTF-8" standalone="no"?>
<!-- Created with Inkscape (http://www.inkscape.org/) -->

<svg
   xmlns:dc="http://purl.org/dc/elements/1.1/"
   xmlns:cc="http://creativecommons.org/ns#"
   xmlns:rdf="http://www.w3.org/1999/02/22-rdf-syntax-ns#"
   xmlns:svg="http://www.w3.org/2000/svg"
   xmlns="http://www.w3.org/2000/svg"
   xmlns:xlink="http://www.w3.org/1999/xlink"
   xmlns:sodipodi="http://sodipodi.sourceforge.net/DTD/sodipodi-0.dtd"
   xmlns:inkscape="http://www.inkscape.org/namespaces/inkscape"
   width="16"
   height="16"
   id="svg2"
   sodipodi:version="0.32"
   inkscape:version="0.91 r13725"
   version="1.0"
   sodipodi:docname="document-save-as-symbolic.svg"
   inkscape:output_extension="org.inkscape.output.svg.inkscape"
   inkscape:export-filename="/home/matt/.icons/Sirocco/scalable/mimetypes/text-plain.png"
   inkscape:export-xdpi="90"
   inkscape:export-ydpi="90"
   sodipodi:modified="true"
   style="display:inline">
  <sodipodi:namedview
     id="base"
     pagecolor="#ffffff"
     bordercolor="#666666"
     borderopacity="1.0"
     inkscape:pageopacity="0.0"
     inkscape:pageshadow="2"
     inkscape:zoom="24.859835"
     inkscape:cx="-3.6421342"
     inkscape:cy="5.0974272"
     inkscape:document-units="px"
     inkscape:current-layer="layer1"
     width="128px"
     height="128px"
     inkscape:showpageshadow="false"
     inkscape:window-width="1920"
     inkscape:window-height="1004"
     inkscape:window-x="0"
     inkscape:window-y="25"
     showguides="true"
     inkscape:guide-bbox="true"
     showgrid="true"
     inkscape:window-maximized="1">
    <sodipodi:guide
       id="guide2226"
       position="32.637397,117.99844"
       orientation="horizontal" />
    <sodipodi:guide
       id="guide2230"
       position="110,57.402344"
       orientation="vertical" />
    <sodipodi:guide
       id="guide2232"
       position="33.760911"
       orientation="horizontal" />
    <sodipodi:guide
       id="guide2231"
       position="46.774696"
       orientation="horizontal" />
    <inkscape:grid
       enabled="true"
       visible="true"
       id="grid3231"
       type="xygrid" />
    <sodipodi:guide
       orientation="1,0"
       position="100,67.625"
       id="guide2713" />
  </sodipodi:namedview>
  <defs
     id="defs4">
    <inkscape:perspective
       sodipodi:type="inkscape:persp3d"
       inkscape:vp_x="0 : 11 : 1"
       inkscape:vp_y="0 : 1000 : 0"
       inkscape:vp_z="22 : 11 : 1"
       inkscape:persp3d-origin="11 : 7.3333333 : 1"
       id="perspective19" />
    <linearGradient
       id="StandardGradient"
       gradientTransform="scale(0.9219544,1.0846523)"
       x1="11.998966"
       y1="0.92195445"
       x2="11.998966"
       y2="19.387045"
       gradientUnits="userSpaceOnUse">
      <stop
         style="stop-color:#000000;stop-opacity:0.86274511;"
         offset="0"
         id="stop3283" />
      <stop
         style="stop-color:#000000;stop-opacity:0.47058824;"
         offset="1"
         id="stop2651" />
    </linearGradient>
    <linearGradient
       inkscape:collect="always"
       xlink:href="#StandardGradient"
       id="linearGradient2549"
       gradientUnits="userSpaceOnUse"
       gradientTransform="matrix(0.9247229,0,0,1.0872097,-2.0600562,0.9976422)"
       x1="11.998966"
       y1="0.92195445"
       x2="11.998966"
       y2="17.478098" />
    <linearGradient
       inkscape:collect="always"
       xlink:href="#StandardGradient"
       id="linearGradient2418"
       gradientUnits="userSpaceOnUse"
       gradientTransform="matrix(0.9247229,0,0,1.0872097,-4.0600562,-3.0023583)"
       x1="11.998966"
       y1="0.92195445"
       x2="11.998966"
       y2="17.478098" />
    <linearGradient
       inkscape:collect="always"
       xlink:href="#StandardGradient"
       id="linearGradient2422"
       gradientUnits="userSpaceOnUse"
       gradientTransform="matrix(0.9247229,0,0,1.0872097,-5.0600562,-1.0023583)"
       x1="11.998966"
       y1="0.92195445"
       x2="11.998966"
       y2="17.478098" />
    <linearGradient
       inkscape:collect="always"
       xlink:href="#StandardGradient"
       id="linearGradient2403"
       gradientUnits="userSpaceOnUse"
       gradientTransform="matrix(0.9247229,0,0,1.0872097,-4.0600562,-3.0023583)"
       x1="11.998966"
       y1="0.92195445"
       x2="11.998966"
       y2="17.478098" />
    <linearGradient
       inkscape:collect="always"
       xlink:href="#StandardGradient"
       id="linearGradient2406"
       gradientUnits="userSpaceOnUse"
       gradientTransform="matrix(0.9247229,0,0,1.0872097,-4.0600562,-3.0023583)"
       x1="11.998966"
       y1="0.92195445"
       x2="11.998966"
       y2="17.478098" />
    <linearGradient
       inkscape:collect="always"
       xlink:href="#StandardGradient"
       id="linearGradient2409"
       gradientUnits="userSpaceOnUse"
       gradientTransform="matrix(0.9247229,0,0,1.0872097,-5.0600562,-3.0023583)"
       x1="11.998966"
       y1="3.6800685"
       x2="11.998966"
       y2="15.638639" />
    <linearGradient
       inkscape:collect="always"
       xlink:href="#StandardGradient"
       id="linearGradient2407"
       gradientUnits="userSpaceOnUse"
       gradientTransform="matrix(0.9247229,0,0,1.0872097,-6.0600562,-2.0023583)"
       x1="11.998966"
       y1="3.6800685"
       x2="11.998966"
       y2="15.638639" />
    <linearGradient
       inkscape:collect="always"
       xlink:href="#StandardGradient"
       id="linearGradient2400"
       gradientUnits="userSpaceOnUse"
       gradientTransform="matrix(-0.9247229,0,0,1.0872097,22.060056,-2.0023583)"
       x1="11.998966"
       y1="3.6800685"
       x2="11.998966"
       y2="15.638639" />
    <linearGradient
       inkscape:collect="always"
       xlink:href="#StandardGradient"
       id="linearGradient2421"
       gradientUnits="userSpaceOnUse"
       gradientTransform="matrix(0.9247229,0,0,1.0872097,-8.0600562,-2.0023583)"
       x1="11.998966"
       y1="3.6800685"
       x2="11.998966"
       y2="15.638639" />
    <linearGradient
       inkscape:collect="always"
       xlink:href="#StandardGradient"
       id="linearGradient2423"
       gradientUnits="userSpaceOnUse"
       gradientTransform="matrix(0.9247229,0,0,1.0872097,-8.0600562,-3.0023583)"
       x1="11.998966"
       y1="3.6800685"
       x2="11.998966"
       y2="15.638639" />
    <inkscape:perspective
       id="perspective3648"
       inkscape:persp3d-origin="0.5 : 0.33333333 : 1"
       inkscape:vp_z="1 : 0.5 : 1"
       inkscape:vp_y="0 : 1000 : 0"
       inkscape:vp_x="0 : 0.5 : 1"
       sodipodi:type="inkscape:persp3d" />
    <linearGradient
       inkscape:collect="always"
       xlink:href="#StandardGradient"
       id="linearGradient2866"
       gradientUnits="userSpaceOnUse"
       gradientTransform="matrix(0.9247229,0,0,1.0872097,-8.0600562,-2.0023583)"
       x1="11.998966"
       y1="3.6800685"
       x2="11.998966"
       y2="15.638639" />
    <linearGradient
       inkscape:collect="always"
       xlink:href="#StandardGradient"
       id="linearGradient2870"
       gradientUnits="userSpaceOnUse"
       gradientTransform="matrix(0.9247229,0,0,1.0872097,-8.0600562,-3.0023583)"
       x1="11.998966"
       y1="3.6800685"
       x2="11.998966"
       y2="15.638639" />
    <linearGradient
       inkscape:collect="always"
       xlink:href="#StandardGradient"
       id="linearGradient3647"
       gradientUnits="userSpaceOnUse"
       gradientTransform="matrix(0.9247229,0,0,1.0872097,-28.060056,-3.0023583)"
       x1="11.998966"
       y1="3.6800685"
       x2="11.998966"
       y2="15.638639" />
    <clipPath
       clipPathUnits="userSpaceOnUse"
       id="clipPath3654">
      <path
         style="fill:#ff00ff;fill-opacity:1;stroke:none;display:inline"
         d="m -20,0 0,13 c 0,-0.54901 0.440347,-1 1,-1 0.559653,0 1.03125,0.45099 1.03125,1 0,0.549009 -0.471597,1 -1.03125,1 -0.559653,0 -1,-0.45099 -1,-1 l 0,3 16,0 0,-4 -3.5,3 -3.5,-3 2,0 0,-3 3,0 0,3 2,0 0,-12 -16,0 z m 2.5,1 6,0 c 0.831,0 1.5,0.669 1.5,1.5 l 0,7 c 0,0.831 -0.669,1.5 -1.5,1.5 l -2.5,0 -3.5,0 C -18.331,11 -19,10.331 -19,9.5 l 0,-7 C -19,1.669 -18.331,1 -17.5,1 z m 1,2 C -16.777,3 -17,3.223 -17,3.5 l 0,5 c 0,0.277 0.223,0.5 0.5,0.5 l 2.5,0 1.5,0 c 0.277,0 0.5,-0.223 0.5,-0.5 l 0,-5 C -12,3.223 -12.223,3 -12.5,3 l -4,0 z m 7.5,1 3,0 0,1 -3,0 0,-1 z m 0,2 3,0 0,2 -3,0 0,-2 z m -7,6 c 0.559653,0 1.03125,0.45099 1.03125,1 0,0.549009 -0.471597,1 -1.03125,1 -0.559653,0 -1,-0.45099 -1,-1 0,-0.54901 0.440347,-1 1,-1 z m 3,0 c 0.559653,0 1.03125,0.45099 1.03125,1 0,0.549009 -0.471596,1 -1.03125,1 -0.559653,0 -1,-0.45099 -1,-1 0,-0.54901 0.440347,-1 1,-1 z"
         id="path3656" />
    </clipPath>
    <linearGradient
       inkscape:collect="always"
       xlink:href="#StandardGradient"
       id="linearGradient5013"
       gradientUnits="userSpaceOnUse"
       gradientTransform="matrix(0.9247229,0,0,1.0872097,-8.0600562,-3.0023583)"
       x1="11.998966"
       y1="3.6800685"
       x2="11.998966"
       y2="15.638639" />
    <linearGradient
       inkscape:collect="always"
       xlink:href="#StandardGradient"
       id="linearGradient5017"
       gradientUnits="userSpaceOnUse"
       gradientTransform="matrix(0.9247229,0,0,1.0872097,-8.0600562,-3.0023583)"
       x1="11.998966"
       y1="3.6800685"
       x2="11.998966"
       y2="15.638639" />
  </defs>
  <metadata
     id="metadata7">
    <rdf:RDF>
      <cc:Work
         rdf:about="">
        <dc:format>image/svg+xml</dc:format>
        <dc:type
           rdf:resource="http://purl.org/dc/dcmitype/StillImage" />
        <dc:title></dc:title>
      </cc:Work>
    </rdf:RDF>
  </metadata>
  <g
     style="display:inline"
     inkscape:label="Calque 1"
     id="layer1"
     inkscape:groupmode="layer">
    <path
       id="BevelShadow"
       style="opacity:1;fill:#bebebe;fill-opacity:1;stroke:none;stroke-width:1.00000024;stroke-linecap:round;stroke-linejoin:miter;stroke-miterlimit:4;stroke-dasharray:none;stroke-opacity:1;display:inline"
       d="M 2.5,1 C 1.669,1 1,1.669 1,2.5 l 0,1 C 1,2.669 1.669,2 2.5,2 l 6,0 C 9.331,2 10,2.669 10,3.5 l 0,-1 C 10,1.669 9.331,1 8.5,1 l -6,0 z m 8.5,3 0,1 3,0 0,-1 -3,0 z m 0,2 0,1 3,0 0,-1 -3,0 z m -8,2.5 0,1 C 3,9.777 3.223,10 3.5,10 L 6,10 7.5,10 C 7.777,10 8,9.777 8,9.5 l 0,-1 C 8,8.777 7.777,9 7.5,9 L 6,9 3.5,9 C 3.223,9 3,8.777 3,8.5 Z m 8,0.5 0,1 3,0 0,-1 -3,0 z M 0.99458255,12 c -0.559653,0 -1,0.45099 -1,1 0,0.177783 0.0728334,0.355528 0.15625,0.5 0.1773453,-0.28938 0.4747171,-0.5 0.84375,-0.5 0.36903285,0 0.69765465,0.21062 0.87499995,0.5 0.083417,-0.144472 0.15625,-0.322217 0.15625,-0.5 0,-0.54901 -0.471597,-1 -1.03124995,-1 z m 2.99999995,0 c -0.559653,0 -1,0.45099 -1,1 0,0.177783 0.072833,0.355528 0.15625,0.5 0.1773453,-0.28938 0.4747171,-0.5 0.84375,-0.5 0.3690329,0 0.6976547,0.21062 0.875,0.5 0.083417,-0.144472 0.15625,-0.322217 0.15625,-0.5 0,-0.54901 -0.471597,-1 -1.03125,-1 z m 3,0 c -0.559653,0 -1,0.45099 -1,1 0,0.177783 0.072833,0.355528 0.15625,0.5 0.1773453,-0.28938 0.4747171,-0.5 0.84375,-0.5 0.3690329,0 0.6976547,0.21062 0.875,0.5 0.083417,-0.144472 0.15625,-0.322217 0.15625,-0.5 0,-0.54901 -0.471597,-1 -1.03125,-1 z M 9,12 10.15625,13 11,13 11,12 9,12 Z m 5,0 0,1 0.84375,0 L 16,12 14,12 Z M 2.5,1 C 1.669,1 1,1.669 1,2.5 l 0,7 C 1,10.331 1.669,11 2.5,11 L 6,11 8.5,11 C 9.331,11 10,10.331 10,9.5 l 0,-7 C 10,1.669 9.331,1 8.5,1 l -6,0 z m 1,2 4,0 C 7.777,3 8,3.223 8,3.5 l 0,5 C 8,8.777 7.777,9 7.5,9 L 6,9 3.5,9 C 3.223,9 3,8.777 3,8.5 l 0,-5 C 3,3.223 3.223,3 3.5,3 Z m 7.5,1 0,1 3,0 0,-1 -3,0 z m 0,2 0,2 3,0 0,-2 -3,0 z m 0,3 0,3 L 8.9945825,12 12.5,15 16,12 14,12 14,9 11,9 Z M 0.99458255,12 c -0.559653,0 -1,0.45099 -1,1 0,0.54901 0.440347,1 1,1 0.55965295,0 1.03124995,-0.450991 1.03124995,-1 0,-0.54901 -0.471597,-1 -1.03124995,-1 z m 2.99999995,0 c -0.559653,0 -1,0.45099 -1,1 0,0.54901 0.4403471,1 1,1 0.559653,0 1.03125,-0.450991 1.03125,-1 0,-0.54901 -0.471597,-1 -1.03125,-1 z m 3,0 c -0.559653,0 -1,0.45099 -1,1 0,0.54901 0.4403466,1 1,1 0.559653,0 1.03125,-0.450991 1.03125,-1 0,-0.54901 -0.4715975,-1 -1.03125,-1 z" />
  </g>
</svg>
